X:1
T:Cumbre Vieja, 76.76 D
T:Cumbre Vieja, 76.76 D
T:Gardner F. Packard, 1903
T:Public Domain Courtesy of the Cyber Hymnal™
C:Gardner F. Packard, 1903
Z:Public Domain
Z:Courtesy of the Cyber Hymnal™
%%score ( 1 2 ) ( 3 4 )
L:1/8
Q:1/4=108
M:4/4
K:C
V:1 treble 
V:2 treble 
V:3 bass 
V:4 bass 
V:1
 G2 | [EG]3 [EA] [GB]2 [Ec]2 | [Fc]4 [FB]2 [Fc]2 | [Fd]2 [FB]2 [Fc]3 [FA] | G6 G2 | %5
 [EA]3 [EB] [Gc]2 [Ge]2 | [^Fe]4 [Gd]2 G2 | (AB) [Ec]2 [^Fc]2 [FA]2 | [Fd]6 G2 | %9
 [E_B]3 [EB] [FA]2 G2 | [FA]4 [FA]2 [GA]2 | [Fc]3 [Fc] [FB]2 [FA]2 | G6 [FG]2 | %13
 [Ec]3 [Ec] [FB]2 [^FA]2 | (G2 [Gc]2) [GB]2 [FA]2 | [EG]2 [Ec]2 [Fd]3 [Ec] | [Ec]6 |] %17
V:2
 G2 | x8 | x8 | x8 | (E2 F2 E2) G2 | x8 | x6 G2 | E2 x6 | x6 G2 | x6 G2 | x8 | x8 | (G2 D2 C2) x2 | %13
 x8 | G2 x6 | x8 | x6 |] %17
V:3
 G,2 | C2 [G,C]2 [E,C]2 [C,G,]2 | [D,G,]4 [D,G,]2 [G,A,]2 | [G,B,]2 G,2 [A,C]2 [B,D]2 | %4
 (C2 D2 C2) G,2 | C2 [G,C]2 [E,C]2 [C,C]2 | [A,,C]4 [B,,D]2 [E,B,]2 | %7
 (CB,) [A,,A,]2 [D,A,]2 [D,C]2 | ([G,B,]2 [A,C]2 [B,D]2) G,2 | [C,C]3 [C,C] [D,C]2 [E,C]2 | %10
 [F,C]4 [F,C]2 [E,A,]2 | [D,A,]3 [D,A,] [D,B,]2 [D,C]2 | ([G,B,]2 A,4) [D,B,]2 | %13
 [C,C]3 [C,C] (F,G,) [^D,B,]2 | (C2 G,2) ([F,A,][G,B,]) ([A,C][B,D]) | C2 [A,C]2 (C2 B,)[C,G,] | %16
 [C,G,]6 |] %17
V:4
 G,2 | C2 x6 | x8 | x2 G,2 x4 | C6 G,2 | C2 x6 | x8 | A,,2 x6 | x6 G,2 | x8 | x8 | x8 | %12
 x2 (F,2 E,2) x2 | x4 ^D,2 x2 | E,4 x4 | C2 G,3 x3 | x6 |] %17

